static/images/past-sponsors/oreilly.svg

<svg fill="none" height="60" viewBox="0 0 301 60" width="301" xmlns="http://www.w3.org/2000/svg"><g fill="#d30000"><path d="m151.8 15.6673v-6.86725h-28.8v41.40005h28.8v-6.8673h-21.878v-10.3991h20.768v-6.8673h-20.768v-10.3991z"/><path d="m173.4 50.2001v-41.40005h6.963v34.53275h20.037v6.8673z"/><path d="m205.8 50.2001v-41.40005h6.914v34.53275h20.086v6.8673z"/><path d="m159 8.80005h7.2v41.40005h-7.2z"/><path d="m35.3114 18.7095c-2.7121 2.7913-4.3658 6.6037-4.3658 10.8245 0 4.2209 1.6537 8.0333 4.3658 10.8245 2.7121 2.7913 6.4164 4.4932 10.5176 4.4932s7.8055-1.7019 10.5176-4.4932c2.6459-2.8593 4.2996-6.6036 4.2996-10.8245 0-4.2208-1.6537-8.0332-4.3658-10.8245-2.7121-2.7912-6.4164-4.4932-10.5176-4.4932s-7.7393 1.702-10.4514 4.4932zm-11.3114 10.8245c0-12.3903 9.79-22.46592 21.829-22.46592s21.829 10.07562 21.829 22.46592c0 12.3904-9.79 22.466-21.829 22.466-12.1052-.0681-21.829-10.0756-21.829-22.466zm65.2223-3.8124v-10.8245h14.0897c2.91 0 5.226 2.3828 5.226 5.3782 0 2.9955-2.316 5.3783-5.226 5.3783h-14.0897zm17.5297 6.6717c5.027-1.5658 8.731-6.3313 8.731-12.0499 0-6.944-5.49-12.59453-12.237-12.59453h-21.0354v43.09383h7.0117v-17.9728h9.7238l10.5179 17.9728h8.136zm-29.5025-20.0832c0 2.9274-2.3152 5.3102-5.1596 5.3102s-5.1596-2.3828-5.1596-5.3102c0-2.92735 2.3152-5.3101 5.1596-5.3101 2.9105.06808 5.1596 2.38275 5.1596 5.3101z"/><path d="m265.2 8.80005h-8.724l-11.042 15.36965-11.11-15.36965h-8.724l16.222 22.49855v18.9015h7.156v-18.8361z"/><path d="m273.3 15.3077c-2.077 0-3.808-1.6731-3.808-3.8077 0-2.07692 1.673-3.80769 3.808-3.80769 2.077 0 3.807 1.67307 3.807 3.80769 0 2.0769-1.673 3.8077-3.807 3.8077zm0-8.3077c-2.481 0-4.5 2.01923-4.5 4.5 0 2.4808 2.019 4.5 4.5 4.5s4.5-2.0192 4.5-4.5c0-2.48077-2.019-4.5-4.5-4.5z"/><path d="m272.204 9.94226h1.788c.346 0 .577.23074.577.57694 0 .3461-.231.5769-.577.5769h-1.788zm3.115.57694c0-.75002-.577-1.32694-1.327-1.32694h-2.538v4.61534h.75v-1.9038h1.269l.923 1.9038h.865l-.923-1.9615c.577-.1731.981-.6923.981-1.3269z"/></g></svg>

<svg width="301" height="60" viewBox="0 0 301 60" fill="none" xmlns="http://www.w3.org/2000/svg">
<path d="M151.8 15.6673V8.80005H123V50.2001H151.8V43.3328H129.922V32.9337H150.69V26.0664H129.922V15.6673H151.8Z" fill="#D30000"/>
<path d="M173.4 50.2001V8.80005H180.363V43.3328H200.4V50.2001H173.4Z" fill="#D30000"/>
<path d="M205.8 50.2001V8.80005H212.714V43.3328H232.8V50.2001H205.8Z" fill="#D30000"/>
<path d="M159 8.80005H166.2V50.2001H159V8.80005Z" fill="#D30000"/>
<path d="M35.3114 18.7095C32.5993 21.5008 30.9456 25.3132 30.9456 29.534C30.9456 33.7549 32.5993 37.5673 35.3114 40.3585C38.0235 43.1498 41.7278 44.8517 45.829 44.8517C49.9302 44.8517 53.6345 43.1498 56.3466 40.3585C58.9925 37.4992 60.6462 33.7549 60.6462 29.534C60.6462 25.3132 58.9925 21.5008 56.2804 18.7095C53.5683 15.9183 49.864 14.2163 45.7628 14.2163C41.6616 14.2163 38.0235 15.9183 35.3114 18.7095ZM24 29.534C24 17.1437 33.79 7.06808 45.829 7.06808C57.868 7.06808 67.658 17.1437 67.658 29.534C67.658 41.9244 57.868 52 45.829 52C33.7238 51.9319 24 41.9244 24 29.534ZM89.2223 25.7216V14.8971H103.312C106.222 14.8971 108.538 17.2799 108.538 20.2753C108.538 23.2708 106.222 25.6536 103.312 25.6536H89.2223V25.7216ZM106.752 32.3933C111.779 30.8275 115.483 26.062 115.483 20.3434C115.483 13.3994 109.993 7.74887 103.246 7.74887H82.2106V50.8427H89.2223V32.8699H98.9461L109.464 50.8427H117.6L106.752 32.3933ZM77.2495 12.3101C77.2495 15.2375 74.9343 17.6203 72.0899 17.6203C69.2455 17.6203 66.9303 15.2375 66.9303 12.3101C66.9303 9.38275 69.2455 7 72.0899 7C75.0004 7.06808 77.2495 9.38275 77.2495 12.3101Z" fill="#D30000"/>
<path d="M265.2 8.80005H256.476L245.434 24.1697L234.324 8.80005H225.6L241.822 31.2986V50.2001H248.978V31.364L265.2 8.80005Z" fill="#D30000"/>
<path d="M273.3 15.3077C271.223 15.3077 269.492 13.6346 269.492 11.5C269.492 9.42308 271.165 7.69231 273.3 7.69231C275.377 7.69231 277.107 9.36538 277.107 11.5C277.107 13.5769 275.434 15.3077 273.3 15.3077ZM273.3 7C270.819 7 268.8 9.01923 268.8 11.5C268.8 13.9808 270.819 16 273.3 16C275.781 16 277.8 13.9808 277.8 11.5C277.8 9.01923 275.781 7 273.3 7Z" fill="#D30000"/>
<path d="M272.204 9.94226H273.992C274.338 9.94226 274.569 10.173 274.569 10.5192C274.569 10.8653 274.338 11.0961 273.992 11.0961H272.204V9.94226ZM275.319 10.5192C275.319 9.76918 274.742 9.19226 273.992 9.19226H271.454V13.8076H272.204V11.9038H273.473L274.396 13.8076H275.261L274.338 11.8461C274.915 11.673 275.319 11.1538 275.319 10.5192Z" fill="#D30000"/>
</svg>
